;FLAVOR:Marlin
;TIME:2583
;Filament used: 1.15766m
;Layer height: 0.2
;MINX:90.445
;MINY:64.252
;MINZ:0.2
;MAXX:146.362
;MAXY:112.941
;MAXZ:35
;TARGET_MACHINE.NAME:Creality Ender-3 V3 SE
;Generated with Cura_SteamEngine 5.7.1
M82 ;absolute extrusion mode
M220 S100 ;Reset Feedrate
M221 S100 ;Reset Flowrate

G28 ;Home

M420 S1; Use saved mesh leveling data

G92 E0 ;Reset Extruder
G1 Z2.0 F3000 ;Move Z Axis up
G1 X-3 Y20 Z0.28 F5000.0 ;Move to start position
M190 S60 ; Set bed temperature and wait
M109 S200 ; Set hotend temperature and wait
G1 X-3 Y100.0 Z0.28 F1500.0 E15 ;Draw the first line
G1 X-2 Y100.0 Z0.28 F5000.0 ;Move to side a little
G1 X-2 Y20 Z0.28 F1500.0 E30 ;Draw the second line
G92 E0 ;Reset Extruder
G1 E-1.0000 F1800 ;Retract a bit
G1 Z2.0 F3000 ;Move Z Axis up
G1 E0.0000 F1800 

G92 E0
G92 E0
G1 F2400 E-0.8
;LAYER_COUNT:175
;LAYER:0
M107
G0 F9000 X102.798 Y71.52 Z0.2
;TYPE:SKIRT
G1 F2400 E0
G1 F1800 X103.37 Y70.785 E0.02943
G1 X103.767 Y70.344 E0.04818
G1 X105.225 Y68.805 E0.11516
G1 X105.752 Y68.269 E0.13891
G1 X106.465 Y67.607 E0.16965
G1 X107.235 Y67.01 E0.20044
G1 X108.055 Y66.484 E0.23122
G1 X108.917 Y66.033 E0.26196
G1 X109.809 Y65.662 E0.29249
G1 X110.508 Y65.433 E0.31573
G1 X111.416 Y65.169 E0.34561
G1 X113.369 Y64.635 E0.40958
G1 X114.32 Y64.423 E0.44037
G1 X115.285 Y64.294 E0.47113
G1 X116.258 Y64.252 E0.5019
G1 X117.195 Y64.293 E0.53154
G1 X118.194 Y64.426 E0.56338
G1 X119.039 Y64.612 E0.59072
G1 X119.969 Y64.856 E0.6211
G1 X121.843 Y65.39 E0.68267
G1 X122.8 Y65.713 E0.71459
G1 X123.691 Y66.105 E0.74534
G1 X124.544 Y66.574 E0.7761
G1 X125.295 Y67.075 E0.80463
G1 X125.757 Y67.43 E0.82303
G1 X126.349 Y67.91 E0.84712
G1 X127.306 Y68.712 E0.88657
G1 X129.266 Y70.263 E0.96554
G1 X131.318 Y71.794 E1.04644
G1 X133.352 Y73.224 E1.125
G1 X135.466 Y74.623 E1.2051
G1 X137.649 Y75.98 E1.28632
G1 X138.525 Y76.509 E1.31865
G1 X139.335 Y77.051 E1.34945
G1 X140.09 Y77.659 E1.38008
G1 X140.702 Y78.239 E1.40672
G1 X141.391 Y78.95 E1.438
G1 X142.706 Y80.355 E1.49881
G1 X143.338 Y81.097 E1.5296
G1 X143.9 Y81.892 E1.56037
G1 X144.39 Y82.733 E1.59112
G1 X144.808 Y83.621 E1.62213
G1 X145.18 Y84.659 E1.65697
G1 X145.713 Y86.447 E1.71592
G1 X145.977 Y87.399 E1.74714
G1 X146.19 Y88.349 E1.7779
G1 X146.32 Y89.314 E1.80867
G1 X146.362 Y90.288 E1.83947
G1 X146.318 Y91.26 E1.87022
G1 X146.196 Y92.185 E1.8997
G1 X146.051 Y92.877 E1.92204
G1 X145.904 Y93.455 E1.94088
G1 X145.382 Y95.322 E2.00214
G1 X145.183 Y95.991 E2.02419
G1 X144.874 Y96.877 E2.05384
G1 X144.458 Y97.796 E2.08571
G1 X143.979 Y98.646 E2.11654
G1 X143.443 Y99.425 E2.14642
G1 X142.572 Y100.447 E2.18885
G1 X142.033 Y101.005 E2.21336
G1 X140.978 Y102.06 E2.26051
G1 X140.461 Y102.561 E2.28325
G1 X139.759 Y103.183 E2.31289
G1 X138.961 Y103.775 E2.34428
G1 X138.517 Y104.059 E2.36094
G1 X136.899 Y105.024 E2.42046
G1 X134.741 Y106.373 E2.50088
G1 X132.661 Y107.757 E2.57982
G1 X130.54 Y109.257 E2.6619
G1 X129.272 Y110.188 E2.71161
G1 X128.463 Y110.729 E2.74236
G1 X127.638 Y111.18 E2.77207
G1 X126.714 Y111.582 E2.80391
G1 X125.863 Y111.869 E2.83228
G1 X124.72 Y112.201 E2.86989
G1 X123.993 Y112.393 E2.89365
G1 X123.04 Y112.599 E2.92446
G1 X122.076 Y112.719 E2.95515
G1 X121.174 Y112.754 E2.98367
G1 X120.631 Y112.738 E3.00084
G1 X119.89 Y112.701 E3.02428
G1 X117.32 Y112.602 E3.10555
G1 X114.754 Y112.576 E3.18663
G1 X112.286 Y112.621 E3.26462
G1 X109.721 Y112.74 E3.34576
G1 X107.32 Y112.916 E3.42182
G1 X106.346 Y112.941 E3.45261
G1 X105.374 Y112.881 E3.48338
G1 X104.481 Y112.748 E3.51191
G1 X103.81 Y112.598 E3.53363
G1 X103.232 Y112.444 E3.55253
G1 X101.519 Y111.944 E3.60892
G1 X100.813 Y111.727 E3.63226
G1 X99.93 Y111.409 E3.66191
G1 X99.015 Y110.985 E3.69377
G1 X98.171 Y110.498 E3.72456
G1 X97.396 Y109.956 E3.75445
G1 X96.36 Y109.053 E3.79787
G1 X94.758 Y107.456 E3.86934
G1 X94.261 Y106.947 E3.89182
G1 X93.638 Y106.246 E3.92145
G1 X93.037 Y105.436 E3.95332
G1 X92.53 Y104.606 E3.98406
G1 X92.126 Y103.798 E4.0126
G1 X91.715 Y102.738 E4.04852
G1 X91.535 Y102.174 E4.06723
G1 X91.027 Y100.439 E4.12435
G1 X90.836 Y99.751 E4.14691
G1 X90.621 Y98.801 E4.17769
G1 X90.489 Y97.835 E4.20849
G1 X90.445 Y96.862 E4.23927
G1 X90.487 Y95.89 E4.27001
G1 X90.602 Y94.995 E4.29852
G1 X90.839 Y93.924 E4.33318
G1 X91.047 Y93.172 E4.35784
G1 X91.627 Y91.224 E4.42206
G1 X91.936 Y90.338 E4.45171
G1 X92.352 Y89.419 E4.48358
G1 X92.794 Y88.631 E4.51213
G1 X93.13 Y88.118 E4.5315
G1 X93.842 Y87.095 E4.57089
G1 X95.311 Y84.929 E4.65358
G1 X96.67 Y82.795 E4.73352
G1 X97.943 Y80.663 E4.81198
G1 X99.197 Y78.429 E4.89293
G1 X100.332 Y76.257 E4.97036
G1 X101.532 Y73.796 E5.05688
G1 X101.814 Y73.197 E5.0778
G1 X102.269 Y72.338 E5.10851
G1 X102.798 Y71.52 E5.13929
G0 F9000 X103.114 Y71.766
G1 F1800 X103.686 Y71.031 E5.16872
G1 X104.057 Y70.619 E5.18624
G1 X105.51 Y69.085 E5.253
G1 X106.024 Y68.562 E5.27617
G1 X106.711 Y67.923 E5.30581
G1 X107.452 Y67.346 E5.33549
G1 X108.241 Y66.838 E5.36514
G1 X109.071 Y66.402 E5.39476
G1 X109.934 Y66.042 E5.42431
G1 X110.62 Y65.817 E5.44712
G1 X111.522 Y65.555 E5.4768
G1 X113.457 Y65.025 E5.54019
G1 X114.373 Y64.819 E5.56986
G1 X115.303 Y64.694 E5.59951
G1 X116.241 Y64.652 E5.62917
G1 X117.178 Y64.693 E5.65881
G1 X118.108 Y64.817 E5.68846
G1 X118.937 Y64.999 E5.71527
G1 X119.859 Y65.241 E5.74539
G1 X121.733 Y65.775 E5.80696
G1 X122.639 Y66.079 E5.83716
G1 X123.499 Y66.456 E5.86683
G1 X124.322 Y66.907 E5.89648
G1 X125.073 Y67.408 E5.92501
G1 X125.505 Y67.741 E5.94224
G1 X126.092 Y68.217 E5.96612
G1 X127.049 Y69.019 E6.00557
G1 X129.027 Y70.584 E6.08527
G1 X131.079 Y72.115 E6.16616
G1 X133.131 Y73.558 E6.24543
G1 X135.245 Y74.957 E6.32553
G1 X137.442 Y76.323 E6.40727
G1 X138.303 Y76.842 E6.43903
G1 X139.085 Y77.363 E6.46872
G1 X139.815 Y77.949 E6.4983
G1 X140.415 Y78.517 E6.52441
G1 X141.099 Y79.223 E6.55547
G1 X142.402 Y80.615 E6.61571
G1 X143.012 Y81.329 E6.64539
G1 X143.555 Y82.094 E6.67503
G1 X144.028 Y82.904 E6.70467
G1 X144.431 Y83.756 E6.73445
G1 X144.803 Y84.794 E6.76929
G1 X145.328 Y86.554 E6.82732
G1 X145.587 Y87.487 E6.85792
G1 X145.794 Y88.403 E6.88759
G1 X145.92 Y89.332 E6.91721
G1 X145.962 Y90.271 E6.94691
G1 X145.921 Y91.208 E6.97654
G1 X145.804 Y92.103 E7.00507
G1 X145.663 Y92.779 E7.02688
G1 X145.519 Y93.347 E7.0454
G1 X144.999 Y95.208 E7.10645
G1 X144.805 Y95.859 E7.12792
G1 X144.496 Y96.745 E7.15757
G1 X144.109 Y97.6 E7.18722
G1 X143.649 Y98.419 E7.2169
G1 X143.113 Y99.198 E7.24678
G1 X142.284 Y100.169 E7.28712
G1 X141.745 Y100.727 E7.31163
G1 X140.699 Y101.773 E7.35837
G1 X140.195 Y102.262 E7.38056
G1 X139.52 Y102.862 E7.4091
G1 X138.745 Y103.438 E7.43961
G1 X138.312 Y103.715 E7.45585
G1 X136.694 Y104.68 E7.51538
G1 X134.519 Y106.04 E7.59643
G1 X132.43 Y107.43 E7.67571
G1 X130.309 Y108.93 E7.7578
G1 X129.05 Y109.856 E7.80718
G1 X128.27 Y110.378 E7.83683
G1 X127.478 Y110.813 E7.86539
G1 X126.586 Y111.203 E7.89615
G1 X125.752 Y111.485 E7.92396
G1 X124.617 Y111.814 E7.9613
G1 X123.908 Y112.002 E7.98448
G1 X122.99 Y112.202 E8.01417
G1 X122.06 Y112.319 E8.04378
G1 X121.158 Y112.354 E8.07231
G1 X120.651 Y112.339 E8.08833
G1 X119.905 Y112.301 E8.11193
G1 X117.335 Y112.202 E8.1932
G1 X114.751 Y112.176 E8.27485
G1 X112.267 Y112.221 E8.35335
G1 X109.702 Y112.34 E8.43448
G1 X107.309 Y112.516 E8.5103
G1 X106.37 Y112.542 E8.53998
G1 X105.433 Y112.485 E8.56964
G1 X104.54 Y112.352 E8.59817
G1 X103.913 Y112.212 E8.61847
G1 X103.344 Y112.06 E8.63708
G1 X101.637 Y111.562 E8.69326
G1 X100.948 Y111.35 E8.71604
G1 X100.098 Y111.046 E8.74456
G1 X99.214 Y110.638 E8.77533
G1 X98.4 Y110.17 E8.805
G1 X97.659 Y109.654 E8.83353
G1 X96.623 Y108.751 E8.87695
G1 X95.044 Y107.177 E8.9474
G1 X94.56 Y106.681 E8.96929
G1 X93.937 Y105.98 E8.99893
G1 X93.378 Y105.227 E9.02856
G1 X92.888 Y104.427 E9.0582
G1 X92.484 Y103.619 E9.08675
G1 X92.096 Y102.616 E9.12073
G1 X91.919 Y102.062 E9.1391
G1 X91.412 Y100.332 E9.19606
G1 X91.226 Y99.662 E9.21804
G1 X91.017 Y98.746 E9.24772
G1 X90.889 Y97.816 E9.27738
G1 X90.845 Y96.879 E9.30702
G1 X90.884 Y95.941 E9.33669
G1 X90.999 Y95.046 E9.3652
G1 X91.225 Y94.031 E9.39806
G1 X91.433 Y93.279 E9.42271
G1 X92.005 Y91.356 E9.4861
G1 X92.314 Y90.47 E9.51575
G1 X92.701 Y89.615 E9.5454
G1 X93.143 Y88.827 E9.57395
G1 X93.458 Y88.347 E9.59209
G1 X94.17 Y87.324 E9.63148
G1 X95.642 Y85.153 E9.71435
G1 X97.007 Y83.01 E9.79464
G1 X98.292 Y80.859 E9.87381
G1 X99.545 Y78.625 E9.95474
G1 X100.692 Y76.432 E10.03294
G1 X101.892 Y73.971 E10.11945
G1 X102.168 Y73.384 E10.13994
G1 X102.605 Y72.555 E10.16955
G1 X103.114 Y71.766 E10.19922
G0 F9000 X103.43 Y72.011
G1 F1800 X103.984 Y71.298 E10.22775
G1 X104.347 Y70.894 E10.24491
G1 X105.796 Y69.365 E10.31147
G1 X106.297 Y68.854 E10.33409
G1 X106.957 Y68.238 E10.36261
G1 X107.669 Y67.682 E10.39116
G1 X108.427 Y67.192 E10.41967
G1 X109.226 Y66.771 E10.44821
G1 X110.059 Y66.422 E10.47675
G1 X110.731 Y66.201 E10.4991
G1 X111.628 Y65.941 E10.52861
G1 X113.546 Y65.415 E10.59145
G1 X114.427 Y65.215 E10.62
G1 X115.322 Y65.094 E10.64853
G1 X116.224 Y65.052 E10.67706
G1 X117.126 Y65.09 E10.70559
G1 X118.022 Y65.208 E10.73415
G1 X118.835 Y65.386 E10.76044
G1 X119.749 Y65.626 E10.7903
G1 X121.623 Y66.16 E10.85187
G1 X122.479 Y66.446 E10.88039
G1 X123.307 Y66.807 E10.90893
G1 X124.1 Y67.24 E10.93748
G1 X124.851 Y67.741 E10.966
G1 X125.253 Y68.051 E10.98204
G1 X125.835 Y68.524 E11.00574
G1 X126.792 Y69.326 E11.04519
G1 X128.788 Y70.905 E11.12561
G1 X130.84 Y72.436 E11.2065
G1 X132.91 Y73.892 E11.28647
G1 X135.024 Y75.291 E11.36657
G1 X137.236 Y76.666 E11.44886
G1 X138.082 Y77.175 E11.48006
G1 X138.835 Y77.675 E11.50862
G1 X139.54 Y78.239 E11.53715
G1 X140.128 Y78.796 E11.56274
G1 X140.807 Y79.496 E11.59355
G1 X142.098 Y80.875 E11.65324
G1 X142.686 Y81.561 E11.68179
G1 X143.21 Y82.296 E11.71031
G1 X143.667 Y83.075 E11.73885
G1 X144.054 Y83.891 E11.76738
G1 X144.426 Y84.929 E11.80222
G1 X144.943 Y86.661 E11.85934
G1 X145.197 Y87.576 E11.88934
G1 X145.398 Y88.457 E11.91789
G1 X145.52 Y89.351 E11.9464
G1 X145.562 Y90.254 E11.97496
G1 X145.524 Y91.156 E12.00349
G1 X145.407 Y92.051 E12.03201
G1 X145.275 Y92.681 E12.05235
G1 X145.134 Y93.239 E12.07053
G1 X144.616 Y95.094 E12.13139
G1 X144.427 Y95.728 E12.15229
G1 X144.131 Y96.581 E12.18082
G1 X143.76 Y97.405 E12.20938
G1 X143.319 Y98.193 E12.23791
G1 X142.809 Y98.938 E12.26644
G1 X141.98 Y99.909 E12.30678
G1 X141.462 Y100.444 E12.33031
G1 X140.42 Y101.486 E12.37687
G1 X139.929 Y101.963 E12.3985
G1 X139.254 Y102.563 E12.42703
G1 X138.529 Y103.101 E12.45556
G1 X138.107 Y103.371 E12.47139
G1 X136.489 Y104.336 E12.53092
G1 X134.297 Y105.707 E12.61261
G1 X132.199 Y107.103 E12.69223
G1 X130.078 Y108.603 E12.77432
G1 X128.827 Y109.524 E12.8234
G1 X128.077 Y110.027 E12.85194
G1 X127.285 Y110.462 E12.88049
G1 X126.458 Y110.824 E12.90901
G1 X125.641 Y111.101 E12.93627
G1 X124.514 Y111.427 E12.97334
G1 X123.822 Y111.611 E12.99597
G1 X122.94 Y111.805 E13.0245
G1 X122.044 Y111.919 E13.05304
G1 X121.142 Y111.954 E13.08156
G1 X120.672 Y111.94 E13.09642
G1 X119.92 Y111.901 E13.12021
G1 X117.35 Y111.802 E13.20148
G1 X114.748 Y111.776 E13.2837
G1 X112.248 Y111.821 E13.3627
G1 X109.683 Y111.94 E13.44384
G1 X107.297 Y112.116 E13.51943
G1 X106.394 Y112.143 E13.54798
G1 X105.492 Y112.089 E13.57653
G1 X104.599 Y111.956 E13.60506
G1 X104.016 Y111.825 E13.62394
G1 X103.456 Y111.676 E13.64225
G1 X101.755 Y111.18 E13.69823
G1 X101.083 Y110.973 E13.72045
G1 X100.233 Y110.669 E13.74897
G1 X99.413 Y110.291 E13.7775
G1 X98.629 Y109.842 E13.80605
G1 X97.888 Y109.326 E13.83458
G1 X96.886 Y108.45 E13.87663
G1 X95.33 Y106.898 E13.94607
G1 X94.859 Y106.415 E13.96739
G1 X94.258 Y105.741 E13.99592
G1 X93.719 Y105.017 E14.02444
G1 X93.246 Y104.248 E14.05297
G1 X92.842 Y103.44 E14.08151
G1 X92.477 Y102.494 E14.11355
G1 X92.303 Y101.949 E14.13163
G1 X91.797 Y100.225 E14.1884
G1 X91.616 Y99.572 E14.20981
G1 X91.413 Y98.691 E14.23838
G1 X91.289 Y97.797 E14.2669
G1 X91.245 Y96.895 E14.29543
G1 X91.281 Y95.992 E14.32399
G1 X91.396 Y95.097 E14.3525
G1 X91.611 Y94.137 E14.38358
G1 X91.816 Y93.393 E14.40797
G1 X92.383 Y91.487 E14.4708
G1 X92.679 Y90.634 E14.49933
G1 X93.05 Y89.811 E14.52785
G1 X93.492 Y89.023 E14.5564
G1 X93.786 Y88.576 E14.57331
G1 X94.498 Y87.553 E14.61269
G1 X95.973 Y85.377 E14.69575
G1 X97.344 Y83.225 E14.77637
G1 X98.641 Y81.055 E14.85625
G1 X99.893 Y78.821 E14.93717
G1 X101.046 Y76.617 E15.01577
G1 X102.254 Y74.141 E15.10281
G1 X102.522 Y73.57 E15.12274
G1 X102.941 Y72.771 E15.15125
G1 X103.43 Y72.011 E15.17981
G1 F2400 E14.37981
G0 F9000 X112.019 Y78.012
G1 F2400 E15.17981
G1 F1800 X113.795 Y76.137 E15.26141
G1 X116.257 Y75.447 E15.3422
G1 X118.719 Y76.137 E15.42299
G1 X120.495 Y78.012 E15.50459
G1 X121.184 Y80.371 E15.58224
G1 X120.494 Y82.835 E15.66309
G1 X120.469 Y82.86 E15.66421
G1 X120.412 Y82.971 E15.66815
G1 X120.418 Y83.057 E15.67088
G1 X120.522 Y83.411 E15.68254
G1 X120.119 Y84.852 E15.72981
G1 X119.082 Y85.889 E15.77615
G1 X117.641 Y86.292 E15.82343
G1 X116.266 Y85.89 E15.8687
G1 X115.472 Y85.096 E15.90418
G1 X115.387 Y85.045 E15.90731
G1 X113.898 Y84.611 E15.95631
G1 X112.019 Y82.732 E16.04028
G1 X111.328 Y80.373 E16.11795
G1 X112.019 Y78.012 E16.19568
G0 F9000 X112.376 Y78.217
G1 F1800 X114.01 Y76.492 E16.27075
G1 X116.257 Y75.862 E16.34449
G1 X118.504 Y76.492 E16.41823
G1 X120.138 Y78.218 E16.49332
G1 X120.768 Y80.373 E16.56427
G1 X120.127 Y82.662 E16.63937
G1 X120.062 Y82.756 E16.64299
G1 X120.011 Y82.969 E16.64991
G1 X120.034 Y83.17 E16.6563
G1 X120.106 Y83.415 E16.66437
G1 X119.762 Y84.643 E16.70466
G1 X118.873 Y85.532 E16.74439
G1 X117.644 Y85.876 E16.78471
G1 X116.477 Y85.535 E16.82313
G1 X115.755 Y84.813 E16.85539
G1 X115.499 Y84.661 E16.8648
G1 X114.109 Y84.256 E16.91054
G1 X112.374 Y82.521 E16.98807
G1 X111.745 Y80.373 E17.05879
G1 X112.376 Y78.217 E17.12978
G0 F9000 X112.733 Y78.421
G1 F1800 X114.224 Y76.847 E17.19828
G1 X116.257 Y76.278 E17.26499
G1 X118.29 Y76.847 E17.33169
G1 X119.781 Y78.422 E17.40022
G1 X120.352 Y80.376 E17.46454
G1 X119.762 Y82.483 E17.53368
G1 X119.734 Y82.52 E17.53514
G1 X119.634 Y82.784 E17.54406
G1 X119.612 Y83.065 E17.55297
G1 X119.65 Y83.282 E17.55993
G1 X119.69 Y83.418 E17.56441
G1 X119.406 Y84.433 E17.59771
G1 X118.663 Y85.176 E17.63091
G1 X117.647 Y85.46 E17.66425
G1 X116.688 Y85.18 E17.69581
G1 X116.038 Y84.53 E17.72486
G1 X115.812 Y84.361 E17.73378
G1 X115.611 Y84.277 E17.74066
G1 X114.32 Y83.901 E17.78315
G1 X112.729 Y82.31 E17.85424
G1 X112.162 Y80.373 E17.91801
G1 X112.733 Y78.421 E17.98227
G0 F9000 X113.09 Y78.626
G1 F1800 X114.438 Y77.203 E18.04421
G1 X116.257 Y76.693 E18.1039
G1 X118.076 Y77.203 E18.16359
G1 X119.424 Y78.626 E18.22553
G1 X119.936 Y80.379 E18.28323
G1 X119.391 Y82.324 E18.34705
G1 X119.275 Y82.578 E18.35588
G1 X119.213 Y82.906 E18.36642
G1 X119.266 Y83.394 E18.38193
G1 X119.274 Y83.421 E18.38282
G1 X119.049 Y84.224 E18.40917
G1 X118.454 Y84.819 E18.43576
G1 X117.65 Y85.044 E18.46214
G1 X116.898 Y84.824 E18.4869
G1 X116.321 Y84.247 E18.51268
G1 X116.058 Y84.041 E18.52324
G1 X115.723 Y83.893 E18.53481
G1 X114.53 Y83.545 E18.57407
G1 X113.084 Y82.099 E18.63869
G1 X112.579 Y80.373 E18.69551
G1 X113.09 Y78.626 E18.75303
G0 F9000 X113.447 Y78.831
G1 F1800 X114.653 Y77.558 E18.80843
G1 X116.257 Y77.108 E18.86107
G1 X117.861 Y77.558 E18.91371
G1 X119.067 Y78.831 E18.96912
G1 X119.52 Y80.383 E19.0202
G1 X119.013 Y82.194 E19.07963
G1 X118.928 Y82.361 E19.08555
G1 X118.831 Y82.727 E19.09751
G1 X118.813 Y83.106 E19.1095
G1 X118.864 Y83.402 E19.11899
G1 X118.692 Y84.015 E19.13911
G1 X118.245 Y84.462 E19.15908
G1 X117.653 Y84.628 E19.17851
G1 X117.109 Y84.469 E19.19642
G1 X116.604 Y83.964 E19.21898
G1 X116.309 Y83.726 E19.23096
G1 X115.835 Y83.509 E19.24743
G1 X114.741 Y83.19 E19.28344
G1 X113.44 Y81.889 E19.34157
G1 X112.996 Y80.373 E19.39149
G1 X113.447 Y78.831 E19.44225
G0 F9000 X113.803 Y79.037
G1 F1800 X114.867 Y77.913 E19.49115
G1 X116.257 Y77.523 E19.53677
G1 X117.647 Y77.913 E19.58239
G1 X118.71 Y79.035 E19.63122
G1 X119.104 Y80.385 E19.67566
G1 X118.641 Y82.037 E19.72987
G1 X118.587 Y82.136 E19.73343
G1 X118.46 Y82.536 E19.74669
G1 X118.411 Y82.952 E19.75993
G1 X118.441 Y83.37 E19.77317
G1 X118.448 Y83.399 E19.77411
